resources/haticons/SVG/hard-disk.svg

<!-- Generated by IcoMoon.io -->
<svg version="1.1" xmlns="http://www.w3.org/2000/svg" width="24" height="24" viewBox="0 0 24 24">
<title>hard-disk</title>
<path d="M1.5 3h21l1.5 12h-24l1.5-12zM20.025 21h-15.975s-4.050-0.225-4.050-4.5h24s-0.3 4.5-3.975 4.5zM21 18h-1.5v1.5h1.5v-1.5z"></path>
</svg>

<svg xmlns="http://www.w3.org/2000/svg" width="24" height="24"><path d="M1.5 3h21L24 15H0L1.5 3zm18.525 18H4.05S0 20.775 0 16.5h24s-.3 4.5-3.975 4.5zM21 18h-1.5v1.5H21V18z"/></svg>
